X: 1781
T: Sinsin
C: Muzaffer Sarısözen
O: Turkey
F: http://compmusic.upf.edu/node/140
N: yeni-cargah--sazeseri--sofyan--sinsin--bunyan
N: makam= yeni-cargah
N: form= sazeseri
N: usul= sofyan = 4/4
M: 4/4
L: 1/16
K: C    
Q: 1/4=117
%%MIDI tuningsystem comma53
c2f2 e2{f}d2 {e}c2cc c2c2  | c2f2 e2{f}d2 {e}c2cc c2c2  | \
w:   |   | 
c2f2 e2{f}d2 {e}c2{d}B2 {c}A2G2  | 
w:   | 
GABc dcBd c2cc c2c2  | c2f2 e2{f}d2 {e}c2cc c2c2  | 
w:   |   | 
c2f2 e2{f}d2 {e}c2cc c2c2  | c2f2 e2{f}d2 {e}c2{d}B2 {c}A2G2  | \
w:   |   | 
GABc dcBd c2cc c2c2  | 
w:   | 
GABc dcBd cBAc BAGA  | GABc dcBd c2cc c2c2  | 
w:   |   | 
GABc dcBd cBAc BAGA  | GABc dcBd c2cc c2c2  | 
w:   |   | 
.g4 .g4 .g4 .g4  | .a4 g4 f4 e4  | .f4 .d4 .e4 .c4  | \
w:   |   |   | 
c2ff efde cdBc ABG2  | 
w:   | 
GABc dcBd c2cc c2c2  | .g4 .g4 .g4 .g4  | \
w:   |   | 
.a4 g4 f4 e4  | 
w:   | 
.f4 .d4 .e4 .c4  | c2ff efde cdBc ABG2  | \
w:   |   | 
GABc dcBd c2cc c2c2  | 
w:   | 
GABc dcBd cBAc BAGA  | GABc dcBd c2cc c2c2  | 
w:   |   | 
GABc dcBd cBAc BAGA  | GABc dcBd c2cc c2c2  | 
w:   |   | 
c2f2 e2{f}d2 {e}c2cc c2c2  | c2f2 e2{f}d2 {e}c2cc c2c2  | \
w:   |   | 
c2f2 e2{f}d2 {e}c2{d}B2 {c}A2G2  | 
w:   | 
GABc dcBd c2cc c2c2  | c2f2 e2{f}d2 {e}c2cc c2c2  | 
w:   |   | 
c2f2 e2{f}d2 {e}c2cc c2c2  | c2f2 e2{f}d2 {e}c2{d}B2 {c}A2G2  | \
w:   |   | 
GABc dcBd c2cc c2c2  | 
w:   | 
GABc dcBd cBAc BAGA  | GABc dcBd c2cc c2c2  | 
w:   |   | 
GABc dcBd cBAc BAGA  | GABc dcBd c2cc c2c2  | 
w:   |   | 
.g4 .g4 .g4 .g4  | .a4 g4 f4 e4  | .f4 .d4 .e4 .c4  | \
w:   |   |   | 
c2ff efde cdBc ABG2  | 
w:   | 
GABc dcBd c2cc c2c2  | .g4 .g4 .g4 .g4  | \
w:   |   | 
.a4 g4 f4 e4  | 
w:   | 
.f4 .d4 .e4 .c4  | c2ff efde cdBc ABG2  | \
w:   |   | 
GABc dcBd c2cc c2c2  | 
w:   | 
GABc dcBd cBAc BAGA  | GABc dcBd c2cc c2c2  | 
w:   |   | 
GABc dcBd cBAc BAGA  | GABc dcBd c2cc c2c2  | 
w:   |   | 
|


